tenants/donaldduck/icons/close.svg

<svg fill="none" height="24" viewBox="0 0 24 24" width="24" xmlns="http://www.w3.org/2000/svg"><path d="m13.878 11.998 5.728-5.71501c.2395-.25317.3708-.58977.3659-.93821-.0049-.34845-.1456-.68124-.392-.92758-.2465-.24635-.5794-.38682-.9278-.39152-.3485-.00471-.685.12671-.9381.36631l-5.714 5.72801-5.71396-5.72801c-.25076-.25089-.59092-.3919-.94564-.39199-.35473-.00009-.69496.14073-.94586.39149-.25089.25076-.3919.59092-.39199.94565-.00009.35472.14073.69496.39149.94585l5.72796 5.71501-5.72796 5.714c-.12493.1238-.22409.2712-.29177.4336-.06767.1623-.10251.3365-.10251.5124s.03484.3501.10251.5124c.06768.1624.16684.3098.29177.4336.1237.1252.27101.2245.4334.2924.16239.0678.33662.1027.5126.1027s.35022-.0349.5126-.1027c.16239-.0679.3097-.1672.4334-.2924l5.71396-5.728 5.715 5.728c.1237.125.271.2243.4333.292s.3364.1026.5122.1026c.1759 0 .35-.0349.5123-.1026s.3096-.167.4332-.292c.1249-.1239.2239-.2713.2915-.4336.0676-.1624.1024-.3365.1024-.5124s-.0348-.35-.1024-.5124c-.0676-.1623-.1666-.3097-.2915-.4336z" fill="#000"/></svg>

<svg width="24" height="24" viewBox="0 0 24 24" fill="none" xmlns="http://www.w3.org/2000/svg">
<path d="M13.878 11.998L19.606 6.28299C19.8455 6.02982 19.9768 5.69322 19.9719 5.34478C19.967 4.99633 19.8263 4.66354 19.5799 4.4172C19.3334 4.17085 19.0005 4.03038 18.6521 4.02568C18.3036 4.02097 17.9671 4.15239 17.714 4.39199L12 10.12L6.28604 4.39199C6.03528 4.1411 5.69512 4.00009 5.3404 4C4.98567 3.99991 4.64544 4.14073 4.39454 4.39149C4.14365 4.64225 4.00264 4.98241 4.00255 5.33714C4.00246 5.69186 4.14328 6.0321 4.39404 6.28299L10.122 11.998L4.39404 17.712C4.26911 17.8358 4.16995 17.9832 4.10227 18.1456C4.0346 18.3079 3.99976 18.4821 3.99976 18.658C3.99976 18.8339 4.0346 19.0081 4.10227 19.1704C4.16995 19.3328 4.26911 19.4802 4.39404 19.604C4.51774 19.7292 4.66505 19.8285 4.82744 19.8964C4.98983 19.9642 5.16406 19.9991 5.34004 19.9991C5.51602 19.9991 5.69026 19.9642 5.85264 19.8964C6.01503 19.8285 6.16234 19.7292 6.28604 19.604L12 13.876L17.715 19.604C17.8387 19.729 17.986 19.8283 18.1483 19.896C18.3106 19.9637 18.4847 19.9986 18.6605 19.9986C18.8364 19.9986 19.0105 19.9637 19.1728 19.896C19.3351 19.8283 19.4824 19.729 19.606 19.604C19.7309 19.4801 19.8299 19.3327 19.8975 19.1704C19.9651 19.008 19.9999 18.8339 19.9999 18.658C19.9999 18.4821 19.9651 18.308 19.8975 18.1456C19.8299 17.9833 19.7309 17.8359 19.606 17.712L13.878 11.998Z" fill="black"/>
</svg>
